X:321
T:New Chance Blues
C:by Norman Blake (key of A)
N:arr. by S.M. Block 2/2018
R:bluegrass
L:1/8
Q:1/4=244
M:4/4
K:C
z2 E2 ^F2 ^G2 |: "A"[e2A2] [e2^c2] [e2B2] [ec]B | [eA]^c e2 "G"[g2B2] E^F | "A"[e2A2] [e^c]B [eA]c e2 | 
"C"[c'e][c'e] [c'e]c' [c'2e2] E^F | "A"[e2A2] [e2^c2] [e2B2] [ec]B | [eA]^c e2 "G"[g2B2] e^f | 
ge ^fd "E"ed ^cB |1 A2 [A^C]A [A2A2C2] E^F :|2 A[A^C] A[AC] [A4A4C4] | "G"[g2B2] [g2B2] [bd]b [bd]b | 
ga ge dg ed | Bc dB GA Bd | "A"[ae]a [ae]a [ae]a [a2e2] | "G"[g2B2] [g2B2] dg ed | 
Bc dB GA BG | "D"D^F AB dB AF | "G"GE DB, G,4 | "G"[g2B2] [g2B2] ge dg | ed Bc dB GA | 
Bd BA GA Bd | "A"[ae]a [ae]a [ae]a [a2e2] | "G"[g2B2] [g2B2] ge dg | ed Bc dB GA | 
"D"D^F AB dB AF | "G"GE DB, G,4 | 


